X:1
T:Redeemer’s Song, 88.88.88.87
T:Redeemer’s Song, 88.88.88.87
T:Arr. by Robert F. Beveridge (1866-1952)
T:Public Domain Courtesy of the Cyber Hymnal™
C:Arr. by Robert F. Beveridge (1866-1952)
Z:Public Domain
Z:Courtesy of the Cyber Hymnal™
%%score ( 1 2 ) ( 3 4 )
L:1/8
Q:1/4=138
M:3/2
K:G
V:1 treble 
V:2 treble 
V:3 bass 
V:4 bass 
V:1
 D2 [DG]2 [FA]2 | [GB]6 [Ac]2 [GB]2 [GA]2 | [FA]6 [FA]2 [FA]2 [GB]2 | [Fc]6 [Ad]2 [Gc]2 [GB]2 | %4
 [GB]6 A2 B2 c2 | d6 B2 G2 A2 | B6 [FA]2 [GB]2 [Gc]2 | [Gd]6 [Ec]2 [DB]2 [DA]2 | %8
 [DG]6 G2 [GB]2 [Fd]2 | [Gd]6 [Bd]2 [ce]2 [Bd]2 | [Bd]6 [GB]2 [FA]2 [FA]2 | %11
 [FA]6 [Ac]2 [Ac]2 [GB]2 | [GB]6 G2 B2 d2 | d6 d2 e2 d2 | d8 G2 [GA]2 | [GB]2 [GB]4 [FA]4 [FA]2 | %16
 [DG]6 |] %17
V:2
 D2 x4 | x12 | x12 | x12 | x12 | x12 | x12 | x12 | x6 G2 x4 | x12 | x12 | x12 | x12 | x12 | %14
 x8 G2 x2 | x12 | x6 |] %17
V:3
 D2 [B,D]2 [A,D]2 | [G,D]6 [F,D]2 [G,D]2 [^C,E]2 | [D,D]6 D2 [CD]2 [B,D]2 | %3
 [A,D]6 [F,D]2 [G,E]2 [G,D]2 | [G,D]6 [CD]2 [B,D]2 [A,D]2 | [G,B,]6 G,2 [E,B,]2 [F,D]2 | %6
 [G,D]6 [D,D]2 [G,D]2 [E,C]2 | [B,,G,]6 [B,,G,]2 [D,G,]2 [D,C]2 | [G,,B,]6 G,2 G,2 A,2 | %9
 B,6 G,2 G,2 G,2 | G,6 [G,D]2 [D,D]2 [D,D]2 | [D,D]6 [D,D]2 [D,D]2 [D,D]2 | %12
 [G,B,]6 [B,D]2 [G,D]2 [F,C]2 | [G,B,]6 [G,B,]2 [G,C]2 [G,B,]2 | [G,B,]8 [B,,D]2 [C,E]2 | %15
 [D,D]2 [D,D]4 [D,C]4 [D,C]2 | [G,,B,]6 |] %17
V:4
 D2 x4 | x12 | x6 D2 x4 | x12 | x12 | x6 G,2 x4 | x12 | x12 | x12 | x12 | x12 | x12 | x12 | x12 | %14
 x12 | x12 | x6 |] %17

